%
(Generated by domino-generator.py on 2023/01/06, 21:48:05) ;
(G54 X0 Y0 is at the top-left of part) ;
(Z0 is on top of the part) ;
(Tool produces a 4.0 diameter hole at domino top plane Z=0.0) ;
(Machine spindle operates at 2800.0 RPM.) ;
(BEGIN PREPARATION BLOCKS) ;
T1 M06 (Select tool 1) ;
G00 G90 G40 G49 G54 (Safe startup) ;
G21 (Programming in mm) ;
G00 G90 Z2.5 (Rapid retract) ;
S2800.0 M03 (Start spindle.) ;
M0 (Pause to set/verify spindle is at 2800.0 RPM.) ;
M05 (Stop spindle.) ;

(Put a new domino in the work holding.) ;
M05 (Stop spindle.) ;
G00 X5.0 Y30.0 (Rapid to part change location.) ;
M0 (Pause for part change.) ;
S2800.0 M03 (Start spindle.) ;

(~~~~~~~~~~ Start 0x0 Domino. ~~~~~~~~~~) ;
(BEGIN DOMINO BISECT MARK of length 12.0 starting at X:25.40,Y:-6.70) ;
G00 X25.40 Y-6.70 (Rapid to bisect start location.) ;
G01 F100.0 Z-1.0 (Mill to bisect depth) ;
G01 F100.0 Y-18.7 (Mill to bisect end position) ;
G00 G90 Z2.5 (Rapid retract) ;
(~~~~~~~~~~ End 0x0 Domino. ~~~~~~~~~~) ;

(Put a new domino in the work holding.) ;
M05 (Stop spindle.) ;
G00 X5.0 Y30.0 (Rapid to part change location.) ;
M0 (Pause for part change.) ;
S2800.0 M03 (Start spindle.) ;

(~~~~~~~~~~ Start 0x1 Domino. ~~~~~~~~~~) ;
(BEGIN DOMINO BISECT MARK of length 12.0 starting at X:25.40,Y:-6.70) ;
G00 X25.40 Y-6.70 (Rapid to bisect start location.) ;
G01 F100.0 Z-1.0 (Mill to bisect depth) ;
G01 F100.0 Y-18.7 (Mill to bisect end position) ;
G00 G90 Z2.5 (Rapid retract) ;
(BEGIN 1-PIP PATTERN at X:38.10,Y:-12.70) ;
G00 X38.10 Y-12.70 (Rapid to pattern center.) ;
G81 Z-2.0 R0.7 F100.0 (Begin drill cycle.) ;
G80 (Cancel drill cycle.) ;
G00 G90 Z2.5 (Rapid retract) ;
(~~~~~~~~~~ End 0x1 Domino. ~~~~~~~~~~) ;

(Put a new domino in the work holding.) ;
M05 (Stop spindle.) ;
G00 X5.0 Y30.0 (Rapid to part change location.) ;
M0 (Pause for part change.) ;
S2800.0 M03 (Start spindle.) ;

(~~~~~~~~~~ Start 0x2 Domino. ~~~~~~~~~~) ;
(BEGIN DOMINO BISECT MARK of length 12.0 starting at X:25.40,Y:-6.70) ;
G00 X25.40 Y-6.70 (Rapid to bisect start location.) ;
G01 F100.0 Z-1.0 (Mill to bisect depth) ;
G01 F100.0 Y-18.7 (Mill to bisect end position) ;
G00 G90 Z2.5 (Rapid retract) ;
(BEGIN 2-PIP PATTERN at X:38.10,Y:-12.70) ;
G00 X31.10 Y-5.70 (Rapid to top-left pip.) ;
G81 Z-2.0 R0.7 F100.0 (Begin drill cycle.) ;
X45.10 Y-19.70 (2nd hole) ;
G80 (Cancel drill cycle.) ;
G00 G90 Z2.5 (Rapid retract) ;
(~~~~~~~~~~ End 0x2 Domino. ~~~~~~~~~~) ;

(Put a new domino in the work holding.) ;
M05 (Stop spindle.) ;
G00 X5.0 Y30.0 (Rapid to part change location.) ;
M0 (Pause for part change.) ;
S2800.0 M03 (Start spindle.) ;

(~~~~~~~~~~ Start 0x3 Domino. ~~~~~~~~~~) ;
(BEGIN DOMINO BISECT MARK of length 12.0 starting at X:25.40,Y:-6.70) ;
G00 X25.40 Y-6.70 (Rapid to bisect start location.) ;
G01 F100.0 Z-1.0 (Mill to bisect depth) ;
G01 F100.0 Y-18.7 (Mill to bisect end position) ;
G00 G90 Z2.5 (Rapid retract) ;
(BEGIN 1-PIP PATTERN at X:38.10,Y:-12.70) ;
G00 X38.10 Y-12.70 (Rapid to pattern center.) ;
G81 Z-2.0 R0.7 F100.0 (Begin drill cycle.) ;
G80 (Cancel drill cycle.) ;
G00 G90 Z2.5 (Rapid retract) ;
(BEGIN 2-PIP PATTERN at X:38.10,Y:-12.70) ;
G00 X31.10 Y-5.70 (Rapid to top-left pip.) ;
G81 Z-2.0 R0.7 F100.0 (Begin drill cycle.) ;
X45.10 Y-19.70 (2nd hole) ;
G80 (Cancel drill cycle.) ;
G00 G90 Z2.5 (Rapid retract) ;
(~~~~~~~~~~ End 0x3 Domino. ~~~~~~~~~~) ;

(Put a new domino in the work holding.) ;
M05 (Stop spindle.) ;
G00 X5.0 Y30.0 (Rapid to part change location.) ;
M0 (Pause for part change.) ;
S2800.0 M03 (Start spindle.) ;

(~~~~~~~~~~ Start 0x4 Domino. ~~~~~~~~~~) ;
(BEGIN DOMINO BISECT MARK of length 12.0 starting at X:25.40,Y:-6.70) ;
G00 X25.40 Y-6.70 (Rapid to bisect start location.) ;
G01 F100.0 Z-1.0 (Mill to bisect depth) ;
G01 F100.0 Y-18.7 (Mill to bisect end position) ;
G00 G90 Z2.5 (Rapid retract) ;
(BEGIN 4-PIP PATTERN at X:38.10,Y:-12.70) ;
G00 X31.10 Y-5.70 (Rapid to top-left pip.) ;
G81 Z-2.0 R0.7 F100.0 (Begin drill cycle.) ;
X45.10 Y-5.70 (2nd hole) ;
X45.10 Y-19.70 (3rd hole) ;
X31.10 Y-19.70 (4th hole) ;
G80 (Cancel drill cycle.) ;
G00 G90 Z2.5 (Rapid retract) ;
(~~~~~~~~~~ End 0x4 Domino. ~~~~~~~~~~) ;

(Put a new domino in the work holding.) ;
M05 (Stop spindle.) ;
G00 X5.0 Y30.0 (Rapid to part change location.) ;
M0 (Pause for part change.) ;
S2800.0 M03 (Start spindle.) ;

(~~~~~~~~~~ Start 0x5 Domino. ~~~~~~~~~~) ;
(BEGIN DOMINO BISECT MARK of length 12.0 starting at X:25.40,Y:-6.70) ;
G00 X25.40 Y-6.70 (Rapid to bisect start location.) ;
G01 F100.0 Z-1.0 (Mill to bisect depth) ;
G01 F100.0 Y-18.7 (Mill to bisect end position) ;
G00 G90 Z2.5 (Rapid retract) ;
(BEGIN 1-PIP PATTERN at X:38.10,Y:-12.70) ;
G00 X38.10 Y-12.70 (Rapid to pattern center.) ;
G81 Z-2.0 R0.7 F100.0 (Begin drill cycle.) ;
G80 (Cancel drill cycle.) ;
G00 G90 Z2.5 (Rapid retract) ;
(BEGIN 4-PIP PATTERN at X:38.10,Y:-12.70) ;
G00 X31.10 Y-5.70 (Rapid to top-left pip.) ;
G81 Z-2.0 R0.7 F100.0 (Begin drill cycle.) ;
X45.10 Y-5.70 (2nd hole) ;
X45.10 Y-19.70 (3rd hole) ;
X31.10 Y-19.70 (4th hole) ;
G80 (Cancel drill cycle.) ;
G00 G90 Z2.5 (Rapid retract) ;
(~~~~~~~~~~ End 0x5 Domino. ~~~~~~~~~~) ;

(Put a new domino in the work holding.) ;
M05 (Stop spindle.) ;
G00 X5.0 Y30.0 (Rapid to part change location.) ;
M0 (Pause for part change.) ;
S2800.0 M03 (Start spindle.) ;

(~~~~~~~~~~ Start 0x6 Domino. ~~~~~~~~~~) ;
(BEGIN DOMINO BISECT MARK of length 12.0 starting at X:25.40,Y:-6.70) ;
G00 X25.40 Y-6.70 (Rapid to bisect start location.) ;
G01 F100.0 Z-1.0 (Mill to bisect depth) ;
G01 F100.0 Y-18.7 (Mill to bisect end position) ;
G00 G90 Z2.5 (Rapid retract) ;
(BEGIN 6-PIP PATTERN at X:38.10,Y:-12.70) ;
G00 X31.10 Y-5.70 (Rapid to top-left pip.) ;
G81 Z-2.0 R0.7 F100.0 (Begin drill cycle.) ;
X38.10 Y-5.70 (2nd hole) ;
X45.10 Y-5.70 (3rd hole) ;
X45.10 Y-19.70 (4th hole) ;
X38.10 Y-19.70 (5th hole) ;
X31.10 Y-19.70 (6th hole) ;
G80 (Cancel drill cycle.) ;
G00 G90 Z2.5 (Rapid retract) ;
(~~~~~~~~~~ End 0x6 Domino. ~~~~~~~~~~) ;

(Put a new domino in the work holding.) ;
M05 (Stop spindle.) ;
G00 X5.0 Y30.0 (Rapid to part change location.) ;
M0 (Pause for part change.) ;
S2800.0 M03 (Start spindle.) ;

(~~~~~~~~~~ Start 1x1 Domino. ~~~~~~~~~~) ;
(BEGIN DOMINO BISECT MARK of length 12.0 starting at X:25.40,Y:-6.70) ;
G00 X25.40 Y-6.70 (Rapid to bisect start location.) ;
G01 F100.0 Z-1.0 (Mill to bisect depth) ;
G01 F100.0 Y-18.7 (Mill to bisect end position) ;
G00 G90 Z2.5 (Rapid retract) ;
(BEGIN 1-PIP PATTERN at X:12.70,Y:-12.70) ;
G00 X12.70 Y-12.70 (Rapid to pattern center.) ;
G81 Z-2.0 R0.7 F100.0 (Begin drill cycle.) ;
G80 (Cancel drill cycle.) ;
G00 G90 Z2.5 (Rapid retract) ;

(BEGIN 1-PIP PATTERN at X:38.10,Y:-12.70) ;
G00 X38.10 Y-12.70 (Rapid to pattern center.) ;
G81 Z-2.0 R0.7 F100.0 (Begin drill cycle.) ;
G80 (Cancel drill cycle.) ;
G00 G90 Z2.5 (Rapid retract) ;
(~~~~~~~~~~ End 1x1 Domino. ~~~~~~~~~~) ;

(Put a new domino in the work holding.) ;
M05 (Stop spindle.) ;
G00 X5.0 Y30.0 (Rapid to part change location.) ;
M0 (Pause for part change.) ;
S2800.0 M03 (Start spindle.) ;

(~~~~~~~~~~ Start 1x2 Domino. ~~~~~~~~~~) ;
(BEGIN DOMINO BISECT MARK of length 12.0 starting at X:25.40,Y:-6.70) ;
G00 X25.40 Y-6.70 (Rapid to bisect start location.) ;
G01 F100.0 Z-1.0 (Mill to bisect depth) ;
G01 F100.0 Y-18.7 (Mill to bisect end position) ;
G00 G90 Z2.5 (Rapid retract) ;
(BEGIN 1-PIP PATTERN at X:12.70,Y:-12.70) ;
G00 X12.70 Y-12.70 (Rapid to pattern center.) ;
G81 Z-2.0 R0.7 F100.0 (Begin drill cycle.) ;
G80 (Cancel drill cycle.) ;
G00 G90 Z2.5 (Rapid retract) ;

(BEGIN 2-PIP PATTERN at X:38.10,Y:-12.70) ;
G00 X31.10 Y-5.70 (Rapid to top-left pip.) ;
G81 Z-2.0 R0.7 F100.0 (Begin drill cycle.) ;
X45.10 Y-19.70 (2nd hole) ;
G80 (Cancel drill cycle.) ;
G00 G90 Z2.5 (Rapid retract) ;
(~~~~~~~~~~ End 1x2 Domino. ~~~~~~~~~~) ;

(Put a new domino in the work holding.) ;
M05 (Stop spindle.) ;
G00 X5.0 Y30.0 (Rapid to part change location.) ;
M0 (Pause for part change.) ;
S2800.0 M03 (Start spindle.) ;

(~~~~~~~~~~ Start 1x3 Domino. ~~~~~~~~~~) ;
(BEGIN DOMINO BISECT MARK of length 12.0 starting at X:25.40,Y:-6.70) ;
G00 X25.40 Y-6.70 (Rapid to bisect start location.) ;
G01 F100.0 Z-1.0 (Mill to bisect depth) ;
G01 F100.0 Y-18.7 (Mill to bisect end position) ;
G00 G90 Z2.5 (Rapid retract) ;
(BEGIN 1-PIP PATTERN at X:12.70,Y:-12.70) ;
G00 X12.70 Y-12.70 (Rapid to pattern center.) ;
G81 Z-2.0 R0.7 F100.0 (Begin drill cycle.) ;
G80 (Cancel drill cycle.) ;
G00 G90 Z2.5 (Rapid retract) ;

(BEGIN 1-PIP PATTERN at X:38.10,Y:-12.70) ;
G00 X38.10 Y-12.70 (Rapid to pattern center.) ;
G81 Z-2.0 R0.7 F100.0 (Begin drill cycle.) ;
G80 (Cancel drill cycle.) ;
G00 G90 Z2.5 (Rapid retract) ;
(BEGIN 2-PIP PATTERN at X:38.10,Y:-12.70) ;
G00 X31.10 Y-5.70 (Rapid to top-left pip.) ;
G81 Z-2.0 R0.7 F100.0 (Begin drill cycle.) ;
X45.10 Y-19.70 (2nd hole) ;
G80 (Cancel drill cycle.) ;
G00 G90 Z2.5 (Rapid retract) ;
(~~~~~~~~~~ End 1x3 Domino. ~~~~~~~~~~) ;

(Put a new domino in the work holding.) ;
M05 (Stop spindle.) ;
G00 X5.0 Y30.0 (Rapid to part change location.) ;
M0 (Pause for part change.) ;
S2800.0 M03 (Start spindle.) ;

(~~~~~~~~~~ Start 1x4 Domino. ~~~~~~~~~~) ;
(BEGIN DOMINO BISECT MARK of length 12.0 starting at X:25.40,Y:-6.70) ;
G00 X25.40 Y-6.70 (Rapid to bisect start location.) ;
G01 F100.0 Z-1.0 (Mill to bisect depth) ;
G01 F100.0 Y-18.7 (Mill to bisect end position) ;
G00 G90 Z2.5 (Rapid retract) ;
(BEGIN 1-PIP PATTERN at X:12.70,Y:-12.70) ;
G00 X12.70 Y-12.70 (Rapid to pattern center.) ;
G81 Z-2.0 R0.7 F100.0 (Begin drill cycle.) ;
G80 (Cancel drill cycle.) ;
G00 G90 Z2.5 (Rapid retract) ;

(BEGIN 4-PIP PATTERN at X:38.10,Y:-12.70) ;
G00 X31.10 Y-5.70 (Rapid to top-left pip.) ;
G81 Z-2.0 R0.7 F100.0 (Begin drill cycle.) ;
X45.10 Y-5.70 (2nd hole) ;
X45.10 Y-19.70 (3rd hole) ;
X31.10 Y-19.70 (4th hole) ;
G80 (Cancel drill cycle.) ;
G00 G90 Z2.5 (Rapid retract) ;
(~~~~~~~~~~ End 1x4 Domino. ~~~~~~~~~~) ;

(Put a new domino in the work holding.) ;
M05 (Stop spindle.) ;
G00 X5.0 Y30.0 (Rapid to part change location.) ;
M0 (Pause for part change.) ;
S2800.0 M03 (Start spindle.) ;

(~~~~~~~~~~ Start 1x5 Domino. ~~~~~~~~~~) ;
(BEGIN DOMINO BISECT MARK of length 12.0 starting at X:25.40,Y:-6.70) ;
G00 X25.40 Y-6.70 (Rapid to bisect start location.) ;
G01 F100.0 Z-1.0 (Mill to bisect depth) ;
G01 F100.0 Y-18.7 (Mill to bisect end position) ;
G00 G90 Z2.5 (Rapid retract) ;
(BEGIN 1-PIP PATTERN at X:12.70,Y:-12.70) ;
G00 X12.70 Y-12.70 (Rapid to pattern center.) ;
G81 Z-2.0 R0.7 F100.0 (Begin drill cycle.) ;
G80 (Cancel drill cycle.) ;
G00 G90 Z2.5 (Rapid retract) ;

(BEGIN 1-PIP PATTERN at X:38.10,Y:-12.70) ;
G00 X38.10 Y-12.70 (Rapid to pattern center.) ;
G81 Z-2.0 R0.7 F100.0 (Begin drill cycle.) ;
G80 (Cancel drill cycle.) ;
G00 G90 Z2.5 (Rapid retract) ;
(BEGIN 4-PIP PATTERN at X:38.10,Y:-12.70) ;
G00 X31.10 Y-5.70 (Rapid to top-left pip.) ;
G81 Z-2.0 R0.7 F100.0 (Begin drill cycle.) ;
X45.10 Y-5.70 (2nd hole) ;
X45.10 Y-19.70 (3rd hole) ;
X31.10 Y-19.70 (4th hole) ;
G80 (Cancel drill cycle.) ;
G00 G90 Z2.5 (Rapid retract) ;
(~~~~~~~~~~ End 1x5 Domino. ~~~~~~~~~~) ;

(Put a new domino in the work holding.) ;
M05 (Stop spindle.) ;
G00 X5.0 Y30.0 (Rapid to part change location.) ;
M0 (Pause for part change.) ;
S2800.0 M03 (Start spindle.) ;

(~~~~~~~~~~ Start 1x6 Domino. ~~~~~~~~~~) ;
(BEGIN DOMINO BISECT MARK of length 12.0 starting at X:25.40,Y:-6.70) ;
G00 X25.40 Y-6.70 (Rapid to bisect start location.) ;
G01 F100.0 Z-1.0 (Mill to bisect depth) ;
G01 F100.0 Y-18.7 (Mill to bisect end position) ;
G00 G90 Z2.5 (Rapid retract) ;
(BEGIN 1-PIP PATTERN at X:12.70,Y:-12.70) ;
G00 X12.70 Y-12.70 (Rapid to pattern center.) ;
G81 Z-2.0 R0.7 F100.0 (Begin drill cycle.) ;
G80 (Cancel drill cycle.) ;
G00 G90 Z2.5 (Rapid retract) ;

(BEGIN 6-PIP PATTERN at X:38.10,Y:-12.70) ;
G00 X31.10 Y-5.70 (Rapid to top-left pip.) ;
G81 Z-2.0 R0.7 F100.0 (Begin drill cycle.) ;
X38.10 Y-5.70 (2nd hole) ;
X45.10 Y-5.70 (3rd hole) ;
X45.10 Y-19.70 (4th hole) ;
X38.10 Y-19.70 (5th hole) ;
X31.10 Y-19.70 (6th hole) ;
G80 (Cancel drill cycle.) ;
G00 G90 Z2.5 (Rapid retract) ;
(~~~~~~~~~~ End 1x6 Domino. ~~~~~~~~~~) ;

(Put a new domino in the work holding.) ;
M05 (Stop spindle.) ;
G00 X5.0 Y30.0 (Rapid to part change location.) ;
M0 (Pause for part change.) ;
S2800.0 M03 (Start spindle.) ;

(~~~~~~~~~~ Start 2x2 Domino. ~~~~~~~~~~) ;
(BEGIN DOMINO BISECT MARK of length 12.0 starting at X:25.40,Y:-6.70) ;
G00 X25.40 Y-6.70 (Rapid to bisect start location.) ;
G01 F100.0 Z-1.0 (Mill to bisect depth) ;
G01 F100.0 Y-18.7 (Mill to bisect end position) ;
G00 G90 Z2.5 (Rapid retract) ;
(BEGIN 2-PIP PATTERN at X:12.70,Y:-12.70) ;
G00 X5.70 Y-5.70 (Rapid to top-left pip.) ;
G81 Z-2.0 R0.7 F100.0 (Begin drill cycle.) ;
X19.70 Y-19.70 (2nd hole) ;
G80 (Cancel drill cycle.) ;
G00 G90 Z2.5 (Rapid retract) ;

(BEGIN 2-PIP PATTERN at X:38.10,Y:-12.70) ;
G00 X31.10 Y-5.70 (Rapid to top-left pip.) ;
G81 Z-2.0 R0.7 F100.0 (Begin drill cycle.) ;
X45.10 Y-19.70 (2nd hole) ;
G80 (Cancel drill cycle.) ;
G00 G90 Z2.5 (Rapid retract) ;
(~~~~~~~~~~ End 2x2 Domino. ~~~~~~~~~~) ;

(Put a new domino in the work holding.) ;
M05 (Stop spindle.) ;
G00 X5.0 Y30.0 (Rapid to part change location.) ;
M0 (Pause for part change.) ;
S2800.0 M03 (Start spindle.) ;

(~~~~~~~~~~ Start 2x3 Domino. ~~~~~~~~~~) ;
(BEGIN DOMINO BISECT MARK of length 12.0 starting at X:25.40,Y:-6.70) ;
G00 X25.40 Y-6.70 (Rapid to bisect start location.) ;
G01 F100.0 Z-1.0 (Mill to bisect depth) ;
G01 F100.0 Y-18.7 (Mill to bisect end position) ;
G00 G90 Z2.5 (Rapid retract) ;
(BEGIN 2-PIP PATTERN at X:12.70,Y:-12.70) ;
G00 X5.70 Y-5.70 (Rapid to top-left pip.) ;
G81 Z-2.0 R0.7 F100.0 (Begin drill cycle.) ;
X19.70 Y-19.70 (2nd hole) ;
G80 (Cancel drill cycle.) ;
G00 G90 Z2.5 (Rapid retract) ;

(BEGIN 1-PIP PATTERN at X:38.10,Y:-12.70) ;
G00 X38.10 Y-12.70 (Rapid to pattern center.) ;
G81 Z-2.0 R0.7 F100.0 (Begin drill cycle.) ;
G80 (Cancel drill cycle.) ;
G00 G90 Z2.5 (Rapid retract) ;
(BEGIN 2-PIP PATTERN at X:38.10,Y:-12.70) ;
G00 X31.10 Y-5.70 (Rapid to top-left pip.) ;
G81 Z-2.0 R0.7 F100.0 (Begin drill cycle.) ;
X45.10 Y-19.70 (2nd hole) ;
G80 (Cancel drill cycle.) ;
G00 G90 Z2.5 (Rapid retract) ;
(~~~~~~~~~~ End 2x3 Domino. ~~~~~~~~~~) ;

(Put a new domino in the work holding.) ;
M05 (Stop spindle.) ;
G00 X5.0 Y30.0 (Rapid to part change location.) ;
M0 (Pause for part change.) ;
S2800.0 M03 (Start spindle.) ;

(~~~~~~~~~~ Start 2x4 Domino. ~~~~~~~~~~) ;
(BEGIN DOMINO BISECT MARK of length 12.0 starting at X:25.40,Y:-6.70) ;
G00 X25.40 Y-6.70 (Rapid to bisect start location.) ;
G01 F100.0 Z-1.0 (Mill to bisect depth) ;
G01 F100.0 Y-18.7 (Mill to bisect end position) ;
G00 G90 Z2.5 (Rapid retract) ;
(BEGIN 2-PIP PATTERN at X:12.70,Y:-12.70) ;
G00 X5.70 Y-5.70 (Rapid to top-left pip.) ;
G81 Z-2.0 R0.7 F100.0 (Begin drill cycle.) ;
X19.70 Y-19.70 (2nd hole) ;
G80 (Cancel drill cycle.) ;
G00 G90 Z2.5 (Rapid retract) ;

(BEGIN 4-PIP PATTERN at X:38.10,Y:-12.70) ;
G00 X31.10 Y-5.70 (Rapid to top-left pip.) ;
G81 Z-2.0 R0.7 F100.0 (Begin drill cycle.) ;
X45.10 Y-5.70 (2nd hole) ;
X45.10 Y-19.70 (3rd hole) ;
X31.10 Y-19.70 (4th hole) ;
G80 (Cancel drill cycle.) ;
G00 G90 Z2.5 (Rapid retract) ;
(~~~~~~~~~~ End 2x4 Domino. ~~~~~~~~~~) ;

(Put a new domino in the work holding.) ;
M05 (Stop spindle.) ;
G00 X5.0 Y30.0 (Rapid to part change location.) ;
M0 (Pause for part change.) ;
S2800.0 M03 (Start spindle.) ;

(~~~~~~~~~~ Start 2x5 Domino. ~~~~~~~~~~) ;
(BEGIN DOMINO BISECT MARK of length 12.0 starting at X:25.40,Y:-6.70) ;
G00 X25.40 Y-6.70 (Rapid to bisect start location.) ;
G01 F100.0 Z-1.0 (Mill to bisect depth) ;
G01 F100.0 Y-18.7 (Mill to bisect end position) ;
G00 G90 Z2.5 (Rapid retract) ;
(BEGIN 2-PIP PATTERN at X:12.70,Y:-12.70) ;
G00 X5.70 Y-5.70 (Rapid to top-left pip.) ;
G81 Z-2.0 R0.7 F100.0 (Begin drill cycle.) ;
X19.70 Y-19.70 (2nd hole) ;
G80 (Cancel drill cycle.) ;
G00 G90 Z2.5 (Rapid retract) ;

(BEGIN 1-PIP PATTERN at X:38.10,Y:-12.70) ;
G00 X38.10 Y-12.70 (Rapid to pattern center.) ;
G81 Z-2.0 R0.7 F100.0 (Begin drill cycle.) ;
G80 (Cancel drill cycle.) ;
G00 G90 Z2.5 (Rapid retract) ;
(BEGIN 4-PIP PATTERN at X:38.10,Y:-12.70) ;
G00 X31.10 Y-5.70 (Rapid to top-left pip.) ;
G81 Z-2.0 R0.7 F100.0 (Begin drill cycle.) ;
X45.10 Y-5.70 (2nd hole) ;
X45.10 Y-19.70 (3rd hole) ;
X31.10 Y-19.70 (4th hole) ;
G80 (Cancel drill cycle.) ;
G00 G90 Z2.5 (Rapid retract) ;
(~~~~~~~~~~ End 2x5 Domino. ~~~~~~~~~~) ;

(Put a new domino in the work holding.) ;
M05 (Stop spindle.) ;
G00 X5.0 Y30.0 (Rapid to part change location.) ;
M0 (Pause for part change.) ;
S2800.0 M03 (Start spindle.) ;

(~~~~~~~~~~ Start 2x6 Domino. ~~~~~~~~~~) ;
(BEGIN DOMINO BISECT MARK of length 12.0 starting at X:25.40,Y:-6.70) ;
G00 X25.40 Y-6.70 (Rapid to bisect start location.) ;
G01 F100.0 Z-1.0 (Mill to bisect depth) ;
G01 F100.0 Y-18.7 (Mill to bisect end position) ;
G00 G90 Z2.5 (Rapid retract) ;
(BEGIN 2-PIP PATTERN at X:12.70,Y:-12.70) ;
G00 X5.70 Y-5.70 (Rapid to top-left pip.) ;
G81 Z-2.0 R0.7 F100.0 (Begin drill cycle.) ;
X19.70 Y-19.70 (2nd hole) ;
G80 (Cancel drill cycle.) ;
G00 G90 Z2.5 (Rapid retract) ;

(BEGIN 6-PIP PATTERN at X:38.10,Y:-12.70) ;
G00 X31.10 Y-5.70 (Rapid to top-left pip.) ;
G81 Z-2.0 R0.7 F100.0 (Begin drill cycle.) ;
X38.10 Y-5.70 (2nd hole) ;
X45.10 Y-5.70 (3rd hole) ;
X45.10 Y-19.70 (4th hole) ;
X38.10 Y-19.70 (5th hole) ;
X31.10 Y-19.70 (6th hole) ;
G80 (Cancel drill cycle.) ;
G00 G90 Z2.5 (Rapid retract) ;
(~~~~~~~~~~ End 2x6 Domino. ~~~~~~~~~~) ;

(Put a new domino in the work holding.) ;
M05 (Stop spindle.) ;
G00 X5.0 Y30.0 (Rapid to part change location.) ;
M0 (Pause for part change.) ;
S2800.0 M03 (Start spindle.) ;

(~~~~~~~~~~ Start 3x3 Domino. ~~~~~~~~~~) ;
(BEGIN DOMINO BISECT MARK of length 12.0 starting at X:25.40,Y:-6.70) ;
G00 X25.40 Y-6.70 (Rapid to bisect start location.) ;
G01 F100.0 Z-1.0 (Mill to bisect depth) ;
G01 F100.0 Y-18.7 (Mill to bisect end position) ;
G00 G90 Z2.5 (Rapid retract) ;
(BEGIN 1-PIP PATTERN at X:12.70,Y:-12.70) ;
G00 X12.70 Y-12.70 (Rapid to pattern center.) ;
G81 Z-2.0 R0.7 F100.0 (Begin drill cycle.) ;
G80 (Cancel drill cycle.) ;
G00 G90 Z2.5 (Rapid retract) ;
(BEGIN 2-PIP PATTERN at X:12.70,Y:-12.70) ;
G00 X5.70 Y-5.70 (Rapid to top-left pip.) ;
G81 Z-2.0 R0.7 F100.0 (Begin drill cycle.) ;
X19.70 Y-19.70 (2nd hole) ;
G80 (Cancel drill cycle.) ;
G00 G90 Z2.5 (Rapid retract) ;

(BEGIN 1-PIP PATTERN at X:38.10,Y:-12.70) ;
G00 X38.10 Y-12.70 (Rapid to pattern center.) ;
G81 Z-2.0 R0.7 F100.0 (Begin drill cycle.) ;
G80 (Cancel drill cycle.) ;
G00 G90 Z2.5 (Rapid retract) ;
(BEGIN 2-PIP PATTERN at X:38.10,Y:-12.70) ;
G00 X31.10 Y-5.70 (Rapid to top-left pip.) ;
G81 Z-2.0 R0.7 F100.0 (Begin drill cycle.) ;
X45.10 Y-19.70 (2nd hole) ;
G80 (Cancel drill cycle.) ;
G00 G90 Z2.5 (Rapid retract) ;
(~~~~~~~~~~ End 3x3 Domino. ~~~~~~~~~~) ;

(Put a new domino in the work holding.) ;
M05 (Stop spindle.) ;
G00 X5.0 Y30.0 (Rapid to part change location.) ;
M0 (Pause for part change.) ;
S2800.0 M03 (Start spindle.) ;

(~~~~~~~~~~ Start 3x4 Domino. ~~~~~~~~~~) ;
(BEGIN DOMINO BISECT MARK of length 12.0 starting at X:25.40,Y:-6.70) ;
G00 X25.40 Y-6.70 (Rapid to bisect start location.) ;
G01 F100.0 Z-1.0 (Mill to bisect depth) ;
G01 F100.0 Y-18.7 (Mill to bisect end position) ;
G00 G90 Z2.5 (Rapid retract) ;
(BEGIN 1-PIP PATTERN at X:12.70,Y:-12.70) ;
G00 X12.70 Y-12.70 (Rapid to pattern center.) ;
G81 Z-2.0 R0.7 F100.0 (Begin drill cycle.) ;
G80 (Cancel drill cycle.) ;
G00 G90 Z2.5 (Rapid retract) ;
(BEGIN 2-PIP PATTERN at X:12.70,Y:-12.70) ;
G00 X5.70 Y-5.70 (Rapid to top-left pip.) ;
G81 Z-2.0 R0.7 F100.0 (Begin drill cycle.) ;
X19.70 Y-19.70 (2nd hole) ;
G80 (Cancel drill cycle.) ;
G00 G90 Z2.5 (Rapid retract) ;

(BEGIN 4-PIP PATTERN at X:38.10,Y:-12.70) ;
G00 X31.10 Y-5.70 (Rapid to top-left pip.) ;
G81 Z-2.0 R0.7 F100.0 (Begin drill cycle.) ;
X45.10 Y-5.70 (2nd hole) ;
X45.10 Y-19.70 (3rd hole) ;
X31.10 Y-19.70 (4th hole) ;
G80 (Cancel drill cycle.) ;
G00 G90 Z2.5 (Rapid retract) ;
(~~~~~~~~~~ End 3x4 Domino. ~~~~~~~~~~) ;

(Put a new domino in the work holding.) ;
M05 (Stop spindle.) ;
G00 X5.0 Y30.0 (Rapid to part change location.) ;
M0 (Pause for part change.) ;
S2800.0 M03 (Start spindle.) ;

(~~~~~~~~~~ Start 3x5 Domino. ~~~~~~~~~~) ;
(BEGIN DOMINO BISECT MARK of length 12.0 starting at X:25.40,Y:-6.70) ;
G00 X25.40 Y-6.70 (Rapid to bisect start location.) ;
G01 F100.0 Z-1.0 (Mill to bisect depth) ;
G01 F100.0 Y-18.7 (Mill to bisect end position) ;
G00 G90 Z2.5 (Rapid retract) ;
(BEGIN 1-PIP PATTERN at X:12.70,Y:-12.70) ;
G00 X12.70 Y-12.70 (Rapid to pattern center.) ;
G81 Z-2.0 R0.7 F100.0 (Begin drill cycle.) ;
G80 (Cancel drill cycle.) ;
G00 G90 Z2.5 (Rapid retract) ;
(BEGIN 2-PIP PATTERN at X:12.70,Y:-12.70) ;
G00 X5.70 Y-5.70 (Rapid to top-left pip.) ;
G81 Z-2.0 R0.7 F100.0 (Begin drill cycle.) ;
X19.70 Y-19.70 (2nd hole) ;
G80 (Cancel drill cycle.) ;
G00 G90 Z2.5 (Rapid retract) ;

(BEGIN 1-PIP PATTERN at X:38.10,Y:-12.70) ;
G00 X38.10 Y-12.70 (Rapid to pattern center.) ;
G81 Z-2.0 R0.7 F100.0 (Begin drill cycle.) ;
G80 (Cancel drill cycle.) ;
G00 G90 Z2.5 (Rapid retract) ;
(BEGIN 4-PIP PATTERN at X:38.10,Y:-12.70) ;
G00 X31.10 Y-5.70 (Rapid to top-left pip.) ;
G81 Z-2.0 R0.7 F100.0 (Begin drill cycle.) ;
X45.10 Y-5.70 (2nd hole) ;
X45.10 Y-19.70 (3rd hole) ;
X31.10 Y-19.70 (4th hole) ;
G80 (Cancel drill cycle.) ;
G00 G90 Z2.5 (Rapid retract) ;
(~~~~~~~~~~ End 3x5 Domino. ~~~~~~~~~~) ;

(Put a new domino in the work holding.) ;
M05 (Stop spindle.) ;
G00 X5.0 Y30.0 (Rapid to part change location.) ;
M0 (Pause for part change.) ;
S2800.0 M03 (Start spindle.) ;

(~~~~~~~~~~ Start 3x6 Domino. ~~~~~~~~~~) ;
(BEGIN DOMINO BISECT MARK of length 12.0 starting at X:25.40,Y:-6.70) ;
G00 X25.40 Y-6.70 (Rapid to bisect start location.) ;
G01 F100.0 Z-1.0 (Mill to bisect depth) ;
G01 F100.0 Y-18.7 (Mill to bisect end position) ;
G00 G90 Z2.5 (Rapid retract) ;
(BEGIN 1-PIP PATTERN at X:12.70,Y:-12.70) ;
G00 X12.70 Y-12.70 (Rapid to pattern center.) ;
G81 Z-2.0 R0.7 F100.0 (Begin drill cycle.) ;
G80 (Cancel drill cycle.) ;
G00 G90 Z2.5 (Rapid retract) ;
(BEGIN 2-PIP PATTERN at X:12.70,Y:-12.70) ;
G00 X5.70 Y-5.70 (Rapid to top-left pip.) ;
G81 Z-2.0 R0.7 F100.0 (Begin drill cycle.) ;
X19.70 Y-19.70 (2nd hole) ;
G80 (Cancel drill cycle.) ;
G00 G90 Z2.5 (Rapid retract) ;

(BEGIN 6-PIP PATTERN at X:38.10,Y:-12.70) ;
G00 X31.10 Y-5.70 (Rapid to top-left pip.) ;
G81 Z-2.0 R0.7 F100.0 (Begin drill cycle.) ;
X38.10 Y-5.70 (2nd hole) ;
X45.10 Y-5.70 (3rd hole) ;
X45.10 Y-19.70 (4th hole) ;
X38.10 Y-19.70 (5th hole) ;
X31.10 Y-19.70 (6th hole) ;
G80 (Cancel drill cycle.) ;
G00 G90 Z2.5 (Rapid retract) ;
(~~~~~~~~~~ End 3x6 Domino. ~~~~~~~~~~) ;

(Put a new domino in the work holding.) ;
M05 (Stop spindle.) ;
G00 X5.0 Y30.0 (Rapid to part change location.) ;
M0 (Pause for part change.) ;
S2800.0 M03 (Start spindle.) ;

(~~~~~~~~~~ Start 4x4 Domino. ~~~~~~~~~~) ;
(BEGIN DOMINO BISECT MARK of length 12.0 starting at X:25.40,Y:-6.70) ;
G00 X25.40 Y-6.70 (Rapid to bisect start location.) ;
G01 F100.0 Z-1.0 (Mill to bisect depth) ;
G01 F100.0 Y-18.7 (Mill to bisect end position) ;
G00 G90 Z2.5 (Rapid retract) ;
(BEGIN 4-PIP PATTERN at X:12.70,Y:-12.70) ;
G00 X5.70 Y-5.70 (Rapid to top-left pip.) ;
G81 Z-2.0 R0.7 F100.0 (Begin drill cycle.) ;
X19.70 Y-5.70 (2nd hole) ;
X19.70 Y-19.70 (3rd hole) ;
X5.70 Y-19.70 (4th hole) ;
G80 (Cancel drill cycle.) ;
G00 G90 Z2.5 (Rapid retract) ;

(BEGIN 4-PIP PATTERN at X:38.10,Y:-12.70) ;
G00 X31.10 Y-5.70 (Rapid to top-left pip.) ;
G81 Z-2.0 R0.7 F100.0 (Begin drill cycle.) ;
X45.10 Y-5.70 (2nd hole) ;
X45.10 Y-19.70 (3rd hole) ;
X31.10 Y-19.70 (4th hole) ;
G80 (Cancel drill cycle.) ;
G00 G90 Z2.5 (Rapid retract) ;
(~~~~~~~~~~ End 4x4 Domino. ~~~~~~~~~~) ;

(Put a new domino in the work holding.) ;
M05 (Stop spindle.) ;
G00 X5.0 Y30.0 (Rapid to part change location.) ;
M0 (Pause for part change.) ;
S2800.0 M03 (Start spindle.) ;

(~~~~~~~~~~ Start 4x5 Domino. ~~~~~~~~~~) ;
(BEGIN DOMINO BISECT MARK of length 12.0 starting at X:25.40,Y:-6.70) ;
G00 X25.40 Y-6.70 (Rapid to bisect start location.) ;
G01 F100.0 Z-1.0 (Mill to bisect depth) ;
G01 F100.0 Y-18.7 (Mill to bisect end position) ;
G00 G90 Z2.5 (Rapid retract) ;
(BEGIN 4-PIP PATTERN at X:12.70,Y:-12.70) ;
G00 X5.70 Y-5.70 (Rapid to top-left pip.) ;
G81 Z-2.0 R0.7 F100.0 (Begin drill cycle.) ;
X19.70 Y-5.70 (2nd hole) ;
X19.70 Y-19.70 (3rd hole) ;
X5.70 Y-19.70 (4th hole) ;
G80 (Cancel drill cycle.) ;
G00 G90 Z2.5 (Rapid retract) ;

(BEGIN 1-PIP PATTERN at X:38.10,Y:-12.70) ;
G00 X38.10 Y-12.70 (Rapid to pattern center.) ;
G81 Z-2.0 R0.7 F100.0 (Begin drill cycle.) ;
G80 (Cancel drill cycle.) ;
G00 G90 Z2.5 (Rapid retract) ;
(BEGIN 4-PIP PATTERN at X:38.10,Y:-12.70) ;
G00 X31.10 Y-5.70 (Rapid to top-left pip.) ;
G81 Z-2.0 R0.7 F100.0 (Begin drill cycle.) ;
X45.10 Y-5.70 (2nd hole) ;
X45.10 Y-19.70 (3rd hole) ;
X31.10 Y-19.70 (4th hole) ;
G80 (Cancel drill cycle.) ;
G00 G90 Z2.5 (Rapid retract) ;
(~~~~~~~~~~ End 4x5 Domino. ~~~~~~~~~~) ;

(Put a new domino in the work holding.) ;
M05 (Stop spindle.) ;
G00 X5.0 Y30.0 (Rapid to part change location.) ;
M0 (Pause for part change.) ;
S2800.0 M03 (Start spindle.) ;

(~~~~~~~~~~ Start 4x6 Domino. ~~~~~~~~~~) ;
(BEGIN DOMINO BISECT MARK of length 12.0 starting at X:25.40,Y:-6.70) ;
G00 X25.40 Y-6.70 (Rapid to bisect start location.) ;
G01 F100.0 Z-1.0 (Mill to bisect depth) ;
G01 F100.0 Y-18.7 (Mill to bisect end position) ;
G00 G90 Z2.5 (Rapid retract) ;
(BEGIN 4-PIP PATTERN at X:12.70,Y:-12.70) ;
G00 X5.70 Y-5.70 (Rapid to top-left pip.) ;
G81 Z-2.0 R0.7 F100.0 (Begin drill cycle.) ;
X19.70 Y-5.70 (2nd hole) ;
X19.70 Y-19.70 (3rd hole) ;
X5.70 Y-19.70 (4th hole) ;
G80 (Cancel drill cycle.) ;
G00 G90 Z2.5 (Rapid retract) ;

(BEGIN 6-PIP PATTERN at X:38.10,Y:-12.70) ;
G00 X31.10 Y-5.70 (Rapid to top-left pip.) ;
G81 Z-2.0 R0.7 F100.0 (Begin drill cycle.) ;
X38.10 Y-5.70 (2nd hole) ;
X45.10 Y-5.70 (3rd hole) ;
X45.10 Y-19.70 (4th hole) ;
X38.10 Y-19.70 (5th hole) ;
X31.10 Y-19.70 (6th hole) ;
G80 (Cancel drill cycle.) ;
G00 G90 Z2.5 (Rapid retract) ;
(~~~~~~~~~~ End 4x6 Domino. ~~~~~~~~~~) ;

(Put a new domino in the work holding.) ;
M05 (Stop spindle.) ;
G00 X5.0 Y30.0 (Rapid to part change location.) ;
M0 (Pause for part change.) ;
S2800.0 M03 (Start spindle.) ;

(~~~~~~~~~~ Start 5x5 Domino. ~~~~~~~~~~) ;
(BEGIN DOMINO BISECT MARK of length 12.0 starting at X:25.40,Y:-6.70) ;
G00 X25.40 Y-6.70 (Rapid to bisect start location.) ;
G01 F100.0 Z-1.0 (Mill to bisect depth) ;
G01 F100.0 Y-18.7 (Mill to bisect end position) ;
G00 G90 Z2.5 (Rapid retract) ;
(BEGIN 1-PIP PATTERN at X:12.70,Y:-12.70) ;
G00 X12.70 Y-12.70 (Rapid to pattern center.) ;
G81 Z-2.0 R0.7 F100.0 (Begin drill cycle.) ;
G80 (Cancel drill cycle.) ;
G00 G90 Z2.5 (Rapid retract) ;
(BEGIN 4-PIP PATTERN at X:12.70,Y:-12.70) ;
G00 X5.70 Y-5.70 (Rapid to top-left pip.) ;
G81 Z-2.0 R0.7 F100.0 (Begin drill cycle.) ;
X19.70 Y-5.70 (2nd hole) ;
X19.70 Y-19.70 (3rd hole) ;
X5.70 Y-19.70 (4th hole) ;
G80 (Cancel drill cycle.) ;
G00 G90 Z2.5 (Rapid retract) ;

(BEGIN 1-PIP PATTERN at X:38.10,Y:-12.70) ;
G00 X38.10 Y-12.70 (Rapid to pattern center.) ;
G81 Z-2.0 R0.7 F100.0 (Begin drill cycle.) ;
G80 (Cancel drill cycle.) ;
G00 G90 Z2.5 (Rapid retract) ;
(BEGIN 4-PIP PATTERN at X:38.10,Y:-12.70) ;
G00 X31.10 Y-5.70 (Rapid to top-left pip.) ;
G81 Z-2.0 R0.7 F100.0 (Begin drill cycle.) ;
X45.10 Y-5.70 (2nd hole) ;
X45.10 Y-19.70 (3rd hole) ;
X31.10 Y-19.70 (4th hole) ;
G80 (Cancel drill cycle.) ;
G00 G90 Z2.5 (Rapid retract) ;
(~~~~~~~~~~ End 5x5 Domino. ~~~~~~~~~~) ;

(Put a new domino in the work holding.) ;
M05 (Stop spindle.) ;
G00 X5.0 Y30.0 (Rapid to part change location.) ;
M0 (Pause for part change.) ;
S2800.0 M03 (Start spindle.) ;

(~~~~~~~~~~ Start 5x6 Domino. ~~~~~~~~~~) ;
(BEGIN DOMINO BISECT MARK of length 12.0 starting at X:25.40,Y:-6.70) ;
G00 X25.40 Y-6.70 (Rapid to bisect start location.) ;
G01 F100.0 Z-1.0 (Mill to bisect depth) ;
G01 F100.0 Y-18.7 (Mill to bisect end position) ;
G00 G90 Z2.5 (Rapid retract) ;
(BEGIN 1-PIP PATTERN at X:12.70,Y:-12.70) ;
G00 X12.70 Y-12.70 (Rapid to pattern center.) ;
G81 Z-2.0 R0.7 F100.0 (Begin drill cycle.) ;
G80 (Cancel drill cycle.) ;
G00 G90 Z2.5 (Rapid retract) ;
(BEGIN 4-PIP PATTERN at X:12.70,Y:-12.70) ;
G00 X5.70 Y-5.70 (Rapid to top-left pip.) ;
G81 Z-2.0 R0.7 F100.0 (Begin drill cycle.) ;
X19.70 Y-5.70 (2nd hole) ;
X19.70 Y-19.70 (3rd hole) ;
X5.70 Y-19.70 (4th hole) ;
G80 (Cancel drill cycle.) ;
G00 G90 Z2.5 (Rapid retract) ;

(BEGIN 6-PIP PATTERN at X:38.10,Y:-12.70) ;
G00 X31.10 Y-5.70 (Rapid to top-left pip.) ;
G81 Z-2.0 R0.7 F100.0 (Begin drill cycle.) ;
X38.10 Y-5.70 (2nd hole) ;
X45.10 Y-5.70 (3rd hole) ;
X45.10 Y-19.70 (4th hole) ;
X38.10 Y-19.70 (5th hole) ;
X31.10 Y-19.70 (6th hole) ;
G80 (Cancel drill cycle.) ;
G00 G90 Z2.5 (Rapid retract) ;
(~~~~~~~~~~ End 5x6 Domino. ~~~~~~~~~~) ;

(Put a new domino in the work holding.) ;
M05 (Stop spindle.) ;
G00 X5.0 Y30.0 (Rapid to part change location.) ;
M0 (Pause for part change.) ;
S2800.0 M03 (Start spindle.) ;

(~~~~~~~~~~ Start 6x6 Domino. ~~~~~~~~~~) ;
(BEGIN DOMINO BISECT MARK of length 12.0 starting at X:25.40,Y:-6.70) ;
G00 X25.40 Y-6.70 (Rapid to bisect start location.) ;
G01 F100.0 Z-1.0 (Mill to bisect depth) ;
G01 F100.0 Y-18.7 (Mill to bisect end position) ;
G00 G90 Z2.5 (Rapid retract) ;
(BEGIN 6-PIP PATTERN at X:12.70,Y:-12.70) ;
G00 X5.70 Y-5.70 (Rapid to top-left pip.) ;
G81 Z-2.0 R0.7 F100.0 (Begin drill cycle.) ;
X12.70 Y-5.70 (2nd hole) ;
X19.70 Y-5.70 (3rd hole) ;
X19.70 Y-19.70 (4th hole) ;
X12.70 Y-19.70 (5th hole) ;
X5.70 Y-19.70 (6th hole) ;
G80 (Cancel drill cycle.) ;
G00 G90 Z2.5 (Rapid retract) ;

(BEGIN 6-PIP PATTERN at X:38.10,Y:-12.70) ;
G00 X31.10 Y-5.70 (Rapid to top-left pip.) ;
G81 Z-2.0 R0.7 F100.0 (Begin drill cycle.) ;
X38.10 Y-5.70 (2nd hole) ;
X45.10 Y-5.70 (3rd hole) ;
X45.10 Y-19.70 (4th hole) ;
X38.10 Y-19.70 (5th hole) ;
X31.10 Y-19.70 (6th hole) ;
G80 (Cancel drill cycle.) ;
G00 G90 Z2.5 (Rapid retract) ;
(~~~~~~~~~~ End 6x6 Domino. ~~~~~~~~~~) ;

(BEGIN COMPLETION BLOCKS) ;
M05 (Stop spindle.) ;
G00 X5.0 Y30.0 (Rapid to part change location.) ;
M30 (End program) ;
%
