%
(Generated by domino-generator.py on 2022/12/29, 15:03:06)
(G54 X0 Y0 is at the top-left of part) ;
(Z0 is on top of the part) ;
(Tool produces a 4.2 diameter hole at domino top plane Z=0.0)
(Machine spindle operates at 2800.0 RPM.)
(BEGIN PREPARATION BLOCKS) ;
T1 M06 (Select tool 1) ;
G00 G90 G40 G49 G54 (Safe startup) ;
G21 (Programming in mm) ;
G00 G90 Z2.5 (Rapid retract) ;
S2800.0 M03 (Start spindle.) ;
M0 (Pause to set/verify spindle is at 2800.0 RPM.) ;
M05 (Stop spindle.) ;

(Put a new domino in the work holding.) ;
M05 (Stop spindle.) ;
G00 X5.0 Y30.0 (Rapid to part change location.) ;
M0 (Pause for part change.) ;
S2800.0 M03 (Start spindle.) ;

(~~~~~~~~~~ Start 0x1 Domino. ~~~~~~~~~~) ;
(BEGIN 1-PIP PATTERN at X:38.10,Y:-12.70) ;
G00 X38.10 Y-12.70 (Rapid to pattern center.) ;
G81 Z-2.0 R0.7 F100.0 (Begin drill cycle.) ;
G80 (Cancel drill cycle.) ;
G00 G90 Z2.5 (Rapid retract) ;
(~~~~~~~~~~ End 0x1 Domino. ~~~~~~~~~~) ;

(Put a new domino in the work holding.) ;
M05 (Stop spindle.) ;
G00 X5.0 Y30.0 (Rapid to part change location.) ;
M0 (Pause for part change.) ;
S2800.0 M03 (Start spindle.) ;

(~~~~~~~~~~ Start 0x2 Domino. ~~~~~~~~~~) ;
(BEGIN 2-PIP PATTERN at X:38.10,Y:-12.70) ;
G00 X31.45 Y-6.05 (Rapid to top-left pip.) ;
G81 Z-2.0 R0.7 F100.0 (Begin drill cycle.) ;
X44.75 Y-19.35 (2nd hole) ;
G80 (Cancel drill cycle.) ;
G00 G90 Z2.5 (Rapid retract) ;
(~~~~~~~~~~ End 0x2 Domino. ~~~~~~~~~~) ;

(Put a new domino in the work holding.) ;
M05 (Stop spindle.) ;
G00 X5.0 Y30.0 (Rapid to part change location.) ;
M0 (Pause for part change.) ;
S2800.0 M03 (Start spindle.) ;

(~~~~~~~~~~ Start 0x3 Domino. ~~~~~~~~~~) ;
(BEGIN 1-PIP PATTERN at X:38.10,Y:-12.70) ;
G00 X38.10 Y-12.70 (Rapid to pattern center.) ;
G81 Z-2.0 R0.7 F100.0 (Begin drill cycle.) ;
G80 (Cancel drill cycle.) ;
G00 G90 Z2.5 (Rapid retract) ;
(BEGIN 2-PIP PATTERN at X:38.10,Y:-12.70) ;
G00 X31.45 Y-6.05 (Rapid to top-left pip.) ;
G81 Z-2.0 R0.7 F100.0 (Begin drill cycle.) ;
X44.75 Y-19.35 (2nd hole) ;
G80 (Cancel drill cycle.) ;
G00 G90 Z2.5 (Rapid retract) ;
(~~~~~~~~~~ End 0x3 Domino. ~~~~~~~~~~) ;

(Put a new domino in the work holding.) ;
M05 (Stop spindle.) ;
G00 X5.0 Y30.0 (Rapid to part change location.) ;
M0 (Pause for part change.) ;
S2800.0 M03 (Start spindle.) ;

(~~~~~~~~~~ Start 0x4 Domino. ~~~~~~~~~~) ;
(BEGIN 4-PIP PATTERN at X:38.10,Y:-12.70) ;
G00 X31.45 Y-6.05 (Rapid to top-left pip.) ;
G81 Z-2.0 R0.7 F100.0 (Begin drill cycle.) ;
X44.75 Y-6.05 (2nd hole) ;
X44.75 Y-19.35 (3rd hole) ;
X31.45 Y-19.35 (4th hole) ;
G80 (Cancel drill cycle.) ;
G00 G90 Z2.5 (Rapid retract) ;
(~~~~~~~~~~ End 0x4 Domino. ~~~~~~~~~~) ;

(Put a new domino in the work holding.) ;
M05 (Stop spindle.) ;
G00 X5.0 Y30.0 (Rapid to part change location.) ;
M0 (Pause for part change.) ;
S2800.0 M03 (Start spindle.) ;

(~~~~~~~~~~ Start 0x5 Domino. ~~~~~~~~~~) ;
(BEGIN 1-PIP PATTERN at X:38.10,Y:-12.70) ;
G00 X38.10 Y-12.70 (Rapid to pattern center.) ;
G81 Z-2.0 R0.7 F100.0 (Begin drill cycle.) ;
G80 (Cancel drill cycle.) ;
G00 G90 Z2.5 (Rapid retract) ;
(BEGIN 4-PIP PATTERN at X:38.10,Y:-12.70) ;
G00 X31.45 Y-6.05 (Rapid to top-left pip.) ;
G81 Z-2.0 R0.7 F100.0 (Begin drill cycle.) ;
X44.75 Y-6.05 (2nd hole) ;
X44.75 Y-19.35 (3rd hole) ;
X31.45 Y-19.35 (4th hole) ;
G80 (Cancel drill cycle.) ;
G00 G90 Z2.5 (Rapid retract) ;
(~~~~~~~~~~ End 0x5 Domino. ~~~~~~~~~~) ;

(Put a new domino in the work holding.) ;
M05 (Stop spindle.) ;
G00 X5.0 Y30.0 (Rapid to part change location.) ;
M0 (Pause for part change.) ;
S2800.0 M03 (Start spindle.) ;

(~~~~~~~~~~ Start 0x6 Domino. ~~~~~~~~~~) ;
(BEGIN 6-PIP PATTERN at X:38.10,Y:-12.70) ;
G00 X31.45 Y-6.05 (Rapid to top-left pip.) ;
G81 Z-2.0 R0.7 F100.0 (Begin drill cycle.) ;
X38.10 Y-6.05 (2nd hole) ;
X44.75 Y-6.05 (3rd hole) ;
X44.75 Y-19.35 (4th hole) ;
X38.10 Y-19.35 (5th hole) ;
X31.45 Y-19.35 (6th hole) ;
G80 (Cancel drill cycle.) ;
G00 G90 Z2.5 (Rapid retract) ;
(~~~~~~~~~~ End 0x6 Domino. ~~~~~~~~~~) ;

(Put a new domino in the work holding.) ;
M05 (Stop spindle.) ;
G00 X5.0 Y30.0 (Rapid to part change location.) ;
M0 (Pause for part change.) ;
S2800.0 M03 (Start spindle.) ;

(~~~~~~~~~~ Start 1x1 Domino. ~~~~~~~~~~) ;
(BEGIN 1-PIP PATTERN at X:12.70,Y:-12.70) ;
G00 X12.70 Y-12.70 (Rapid to pattern center.) ;
G81 Z-2.0 R0.7 F100.0 (Begin drill cycle.) ;
G80 (Cancel drill cycle.) ;
G00 G90 Z2.5 (Rapid retract) ;

(BEGIN 1-PIP PATTERN at X:38.10,Y:-12.70) ;
G00 X38.10 Y-12.70 (Rapid to pattern center.) ;
G81 Z-2.0 R0.7 F100.0 (Begin drill cycle.) ;
G80 (Cancel drill cycle.) ;
G00 G90 Z2.5 (Rapid retract) ;
(~~~~~~~~~~ End 1x1 Domino. ~~~~~~~~~~) ;

(Put a new domino in the work holding.) ;
M05 (Stop spindle.) ;
G00 X5.0 Y30.0 (Rapid to part change location.) ;
M0 (Pause for part change.) ;
S2800.0 M03 (Start spindle.) ;

(~~~~~~~~~~ Start 1x2 Domino. ~~~~~~~~~~) ;
(BEGIN 1-PIP PATTERN at X:12.70,Y:-12.70) ;
G00 X12.70 Y-12.70 (Rapid to pattern center.) ;
G81 Z-2.0 R0.7 F100.0 (Begin drill cycle.) ;
G80 (Cancel drill cycle.) ;
G00 G90 Z2.5 (Rapid retract) ;

(BEGIN 2-PIP PATTERN at X:38.10,Y:-12.70) ;
G00 X31.45 Y-6.05 (Rapid to top-left pip.) ;
G81 Z-2.0 R0.7 F100.0 (Begin drill cycle.) ;
X44.75 Y-19.35 (2nd hole) ;
G80 (Cancel drill cycle.) ;
G00 G90 Z2.5 (Rapid retract) ;
(~~~~~~~~~~ End 1x2 Domino. ~~~~~~~~~~) ;

(Put a new domino in the work holding.) ;
M05 (Stop spindle.) ;
G00 X5.0 Y30.0 (Rapid to part change location.) ;
M0 (Pause for part change.) ;
S2800.0 M03 (Start spindle.) ;

(~~~~~~~~~~ Start 1x3 Domino. ~~~~~~~~~~) ;
(BEGIN 1-PIP PATTERN at X:12.70,Y:-12.70) ;
G00 X12.70 Y-12.70 (Rapid to pattern center.) ;
G81 Z-2.0 R0.7 F100.0 (Begin drill cycle.) ;
G80 (Cancel drill cycle.) ;
G00 G90 Z2.5 (Rapid retract) ;

(BEGIN 1-PIP PATTERN at X:38.10,Y:-12.70) ;
G00 X38.10 Y-12.70 (Rapid to pattern center.) ;
G81 Z-2.0 R0.7 F100.0 (Begin drill cycle.) ;
G80 (Cancel drill cycle.) ;
G00 G90 Z2.5 (Rapid retract) ;
(BEGIN 2-PIP PATTERN at X:38.10,Y:-12.70) ;
G00 X31.45 Y-6.05 (Rapid to top-left pip.) ;
G81 Z-2.0 R0.7 F100.0 (Begin drill cycle.) ;
X44.75 Y-19.35 (2nd hole) ;
G80 (Cancel drill cycle.) ;
G00 G90 Z2.5 (Rapid retract) ;
(~~~~~~~~~~ End 1x3 Domino. ~~~~~~~~~~) ;

(Put a new domino in the work holding.) ;
M05 (Stop spindle.) ;
G00 X5.0 Y30.0 (Rapid to part change location.) ;
M0 (Pause for part change.) ;
S2800.0 M03 (Start spindle.) ;

(~~~~~~~~~~ Start 1x4 Domino. ~~~~~~~~~~) ;
(BEGIN 1-PIP PATTERN at X:12.70,Y:-12.70) ;
G00 X12.70 Y-12.70 (Rapid to pattern center.) ;
G81 Z-2.0 R0.7 F100.0 (Begin drill cycle.) ;
G80 (Cancel drill cycle.) ;
G00 G90 Z2.5 (Rapid retract) ;

(BEGIN 4-PIP PATTERN at X:38.10,Y:-12.70) ;
G00 X31.45 Y-6.05 (Rapid to top-left pip.) ;
G81 Z-2.0 R0.7 F100.0 (Begin drill cycle.) ;
X44.75 Y-6.05 (2nd hole) ;
X44.75 Y-19.35 (3rd hole) ;
X31.45 Y-19.35 (4th hole) ;
G80 (Cancel drill cycle.) ;
G00 G90 Z2.5 (Rapid retract) ;
(~~~~~~~~~~ End 1x4 Domino. ~~~~~~~~~~) ;

(Put a new domino in the work holding.) ;
M05 (Stop spindle.) ;
G00 X5.0 Y30.0 (Rapid to part change location.) ;
M0 (Pause for part change.) ;
S2800.0 M03 (Start spindle.) ;

(~~~~~~~~~~ Start 1x5 Domino. ~~~~~~~~~~) ;
(BEGIN 1-PIP PATTERN at X:12.70,Y:-12.70) ;
G00 X12.70 Y-12.70 (Rapid to pattern center.) ;
G81 Z-2.0 R0.7 F100.0 (Begin drill cycle.) ;
G80 (Cancel drill cycle.) ;
G00 G90 Z2.5 (Rapid retract) ;

(BEGIN 1-PIP PATTERN at X:38.10,Y:-12.70) ;
G00 X38.10 Y-12.70 (Rapid to pattern center.) ;
G81 Z-2.0 R0.7 F100.0 (Begin drill cycle.) ;
G80 (Cancel drill cycle.) ;
G00 G90 Z2.5 (Rapid retract) ;
(BEGIN 4-PIP PATTERN at X:38.10,Y:-12.70) ;
G00 X31.45 Y-6.05 (Rapid to top-left pip.) ;
G81 Z-2.0 R0.7 F100.0 (Begin drill cycle.) ;
X44.75 Y-6.05 (2nd hole) ;
X44.75 Y-19.35 (3rd hole) ;
X31.45 Y-19.35 (4th hole) ;
G80 (Cancel drill cycle.) ;
G00 G90 Z2.5 (Rapid retract) ;
(~~~~~~~~~~ End 1x5 Domino. ~~~~~~~~~~) ;

(Put a new domino in the work holding.) ;
M05 (Stop spindle.) ;
G00 X5.0 Y30.0 (Rapid to part change location.) ;
M0 (Pause for part change.) ;
S2800.0 M03 (Start spindle.) ;

(~~~~~~~~~~ Start 1x6 Domino. ~~~~~~~~~~) ;
(BEGIN 1-PIP PATTERN at X:12.70,Y:-12.70) ;
G00 X12.70 Y-12.70 (Rapid to pattern center.) ;
G81 Z-2.0 R0.7 F100.0 (Begin drill cycle.) ;
G80 (Cancel drill cycle.) ;
G00 G90 Z2.5 (Rapid retract) ;

(BEGIN 6-PIP PATTERN at X:38.10,Y:-12.70) ;
G00 X31.45 Y-6.05 (Rapid to top-left pip.) ;
G81 Z-2.0 R0.7 F100.0 (Begin drill cycle.) ;
X38.10 Y-6.05 (2nd hole) ;
X44.75 Y-6.05 (3rd hole) ;
X44.75 Y-19.35 (4th hole) ;
X38.10 Y-19.35 (5th hole) ;
X31.45 Y-19.35 (6th hole) ;
G80 (Cancel drill cycle.) ;
G00 G90 Z2.5 (Rapid retract) ;
(~~~~~~~~~~ End 1x6 Domino. ~~~~~~~~~~) ;

(Put a new domino in the work holding.) ;
M05 (Stop spindle.) ;
G00 X5.0 Y30.0 (Rapid to part change location.) ;
M0 (Pause for part change.) ;
S2800.0 M03 (Start spindle.) ;

(~~~~~~~~~~ Start 2x2 Domino. ~~~~~~~~~~) ;
(BEGIN 2-PIP PATTERN at X:12.70,Y:-12.70) ;
G00 X6.05 Y-6.05 (Rapid to top-left pip.) ;
G81 Z-2.0 R0.7 F100.0 (Begin drill cycle.) ;
X19.35 Y-19.35 (2nd hole) ;
G80 (Cancel drill cycle.) ;
G00 G90 Z2.5 (Rapid retract) ;

(BEGIN 2-PIP PATTERN at X:38.10,Y:-12.70) ;
G00 X31.45 Y-6.05 (Rapid to top-left pip.) ;
G81 Z-2.0 R0.7 F100.0 (Begin drill cycle.) ;
X44.75 Y-19.35 (2nd hole) ;
G80 (Cancel drill cycle.) ;
G00 G90 Z2.5 (Rapid retract) ;
(~~~~~~~~~~ End 2x2 Domino. ~~~~~~~~~~) ;

(Put a new domino in the work holding.) ;
M05 (Stop spindle.) ;
G00 X5.0 Y30.0 (Rapid to part change location.) ;
M0 (Pause for part change.) ;
S2800.0 M03 (Start spindle.) ;

(~~~~~~~~~~ Start 2x3 Domino. ~~~~~~~~~~) ;
(BEGIN 2-PIP PATTERN at X:12.70,Y:-12.70) ;
G00 X6.05 Y-6.05 (Rapid to top-left pip.) ;
G81 Z-2.0 R0.7 F100.0 (Begin drill cycle.) ;
X19.35 Y-19.35 (2nd hole) ;
G80 (Cancel drill cycle.) ;
G00 G90 Z2.5 (Rapid retract) ;

(BEGIN 1-PIP PATTERN at X:38.10,Y:-12.70) ;
G00 X38.10 Y-12.70 (Rapid to pattern center.) ;
G81 Z-2.0 R0.7 F100.0 (Begin drill cycle.) ;
G80 (Cancel drill cycle.) ;
G00 G90 Z2.5 (Rapid retract) ;
(BEGIN 2-PIP PATTERN at X:38.10,Y:-12.70) ;
G00 X31.45 Y-6.05 (Rapid to top-left pip.) ;
G81 Z-2.0 R0.7 F100.0 (Begin drill cycle.) ;
X44.75 Y-19.35 (2nd hole) ;
G80 (Cancel drill cycle.) ;
G00 G90 Z2.5 (Rapid retract) ;
(~~~~~~~~~~ End 2x3 Domino. ~~~~~~~~~~) ;

(Put a new domino in the work holding.) ;
M05 (Stop spindle.) ;
G00 X5.0 Y30.0 (Rapid to part change location.) ;
M0 (Pause for part change.) ;
S2800.0 M03 (Start spindle.) ;

(~~~~~~~~~~ Start 2x4 Domino. ~~~~~~~~~~) ;
(BEGIN 2-PIP PATTERN at X:12.70,Y:-12.70) ;
G00 X6.05 Y-6.05 (Rapid to top-left pip.) ;
G81 Z-2.0 R0.7 F100.0 (Begin drill cycle.) ;
X19.35 Y-19.35 (2nd hole) ;
G80 (Cancel drill cycle.) ;
G00 G90 Z2.5 (Rapid retract) ;

(BEGIN 4-PIP PATTERN at X:38.10,Y:-12.70) ;
G00 X31.45 Y-6.05 (Rapid to top-left pip.) ;
G81 Z-2.0 R0.7 F100.0 (Begin drill cycle.) ;
X44.75 Y-6.05 (2nd hole) ;
X44.75 Y-19.35 (3rd hole) ;
X31.45 Y-19.35 (4th hole) ;
G80 (Cancel drill cycle.) ;
G00 G90 Z2.5 (Rapid retract) ;
(~~~~~~~~~~ End 2x4 Domino. ~~~~~~~~~~) ;

(Put a new domino in the work holding.) ;
M05 (Stop spindle.) ;
G00 X5.0 Y30.0 (Rapid to part change location.) ;
M0 (Pause for part change.) ;
S2800.0 M03 (Start spindle.) ;

(~~~~~~~~~~ Start 2x5 Domino. ~~~~~~~~~~) ;
(BEGIN 2-PIP PATTERN at X:12.70,Y:-12.70) ;
G00 X6.05 Y-6.05 (Rapid to top-left pip.) ;
G81 Z-2.0 R0.7 F100.0 (Begin drill cycle.) ;
X19.35 Y-19.35 (2nd hole) ;
G80 (Cancel drill cycle.) ;
G00 G90 Z2.5 (Rapid retract) ;

(BEGIN 1-PIP PATTERN at X:38.10,Y:-12.70) ;
G00 X38.10 Y-12.70 (Rapid to pattern center.) ;
G81 Z-2.0 R0.7 F100.0 (Begin drill cycle.) ;
G80 (Cancel drill cycle.) ;
G00 G90 Z2.5 (Rapid retract) ;
(BEGIN 4-PIP PATTERN at X:38.10,Y:-12.70) ;
G00 X31.45 Y-6.05 (Rapid to top-left pip.) ;
G81 Z-2.0 R0.7 F100.0 (Begin drill cycle.) ;
X44.75 Y-6.05 (2nd hole) ;
X44.75 Y-19.35 (3rd hole) ;
X31.45 Y-19.35 (4th hole) ;
G80 (Cancel drill cycle.) ;
G00 G90 Z2.5 (Rapid retract) ;
(~~~~~~~~~~ End 2x5 Domino. ~~~~~~~~~~) ;

(Put a new domino in the work holding.) ;
M05 (Stop spindle.) ;
G00 X5.0 Y30.0 (Rapid to part change location.) ;
M0 (Pause for part change.) ;
S2800.0 M03 (Start spindle.) ;

(~~~~~~~~~~ Start 2x6 Domino. ~~~~~~~~~~) ;
(BEGIN 2-PIP PATTERN at X:12.70,Y:-12.70) ;
G00 X6.05 Y-6.05 (Rapid to top-left pip.) ;
G81 Z-2.0 R0.7 F100.0 (Begin drill cycle.) ;
X19.35 Y-19.35 (2nd hole) ;
G80 (Cancel drill cycle.) ;
G00 G90 Z2.5 (Rapid retract) ;

(BEGIN 6-PIP PATTERN at X:38.10,Y:-12.70) ;
G00 X31.45 Y-6.05 (Rapid to top-left pip.) ;
G81 Z-2.0 R0.7 F100.0 (Begin drill cycle.) ;
X38.10 Y-6.05 (2nd hole) ;
X44.75 Y-6.05 (3rd hole) ;
X44.75 Y-19.35 (4th hole) ;
X38.10 Y-19.35 (5th hole) ;
X31.45 Y-19.35 (6th hole) ;
G80 (Cancel drill cycle.) ;
G00 G90 Z2.5 (Rapid retract) ;
(~~~~~~~~~~ End 2x6 Domino. ~~~~~~~~~~) ;

(Put a new domino in the work holding.) ;
M05 (Stop spindle.) ;
G00 X5.0 Y30.0 (Rapid to part change location.) ;
M0 (Pause for part change.) ;
S2800.0 M03 (Start spindle.) ;

(~~~~~~~~~~ Start 3x3 Domino. ~~~~~~~~~~) ;
(BEGIN 1-PIP PATTERN at X:12.70,Y:-12.70) ;
G00 X12.70 Y-12.70 (Rapid to pattern center.) ;
G81 Z-2.0 R0.7 F100.0 (Begin drill cycle.) ;
G80 (Cancel drill cycle.) ;
G00 G90 Z2.5 (Rapid retract) ;
(BEGIN 2-PIP PATTERN at X:12.70,Y:-12.70) ;
G00 X6.05 Y-6.05 (Rapid to top-left pip.) ;
G81 Z-2.0 R0.7 F100.0 (Begin drill cycle.) ;
X19.35 Y-19.35 (2nd hole) ;
G80 (Cancel drill cycle.) ;
G00 G90 Z2.5 (Rapid retract) ;

(BEGIN 1-PIP PATTERN at X:38.10,Y:-12.70) ;
G00 X38.10 Y-12.70 (Rapid to pattern center.) ;
G81 Z-2.0 R0.7 F100.0 (Begin drill cycle.) ;
G80 (Cancel drill cycle.) ;
G00 G90 Z2.5 (Rapid retract) ;
(BEGIN 2-PIP PATTERN at X:38.10,Y:-12.70) ;
G00 X31.45 Y-6.05 (Rapid to top-left pip.) ;
G81 Z-2.0 R0.7 F100.0 (Begin drill cycle.) ;
X44.75 Y-19.35 (2nd hole) ;
G80 (Cancel drill cycle.) ;
G00 G90 Z2.5 (Rapid retract) ;
(~~~~~~~~~~ End 3x3 Domino. ~~~~~~~~~~) ;

(Put a new domino in the work holding.) ;
M05 (Stop spindle.) ;
G00 X5.0 Y30.0 (Rapid to part change location.) ;
M0 (Pause for part change.) ;
S2800.0 M03 (Start spindle.) ;

(~~~~~~~~~~ Start 3x4 Domino. ~~~~~~~~~~) ;
(BEGIN 1-PIP PATTERN at X:12.70,Y:-12.70) ;
G00 X12.70 Y-12.70 (Rapid to pattern center.) ;
G81 Z-2.0 R0.7 F100.0 (Begin drill cycle.) ;
G80 (Cancel drill cycle.) ;
G00 G90 Z2.5 (Rapid retract) ;
(BEGIN 2-PIP PATTERN at X:12.70,Y:-12.70) ;
G00 X6.05 Y-6.05 (Rapid to top-left pip.) ;
G81 Z-2.0 R0.7 F100.0 (Begin drill cycle.) ;
X19.35 Y-19.35 (2nd hole) ;
G80 (Cancel drill cycle.) ;
G00 G90 Z2.5 (Rapid retract) ;

(BEGIN 4-PIP PATTERN at X:38.10,Y:-12.70) ;
G00 X31.45 Y-6.05 (Rapid to top-left pip.) ;
G81 Z-2.0 R0.7 F100.0 (Begin drill cycle.) ;
X44.75 Y-6.05 (2nd hole) ;
X44.75 Y-19.35 (3rd hole) ;
X31.45 Y-19.35 (4th hole) ;
G80 (Cancel drill cycle.) ;
G00 G90 Z2.5 (Rapid retract) ;
(~~~~~~~~~~ End 3x4 Domino. ~~~~~~~~~~) ;

(Put a new domino in the work holding.) ;
M05 (Stop spindle.) ;
G00 X5.0 Y30.0 (Rapid to part change location.) ;
M0 (Pause for part change.) ;
S2800.0 M03 (Start spindle.) ;

(~~~~~~~~~~ Start 3x5 Domino. ~~~~~~~~~~) ;
(BEGIN 1-PIP PATTERN at X:12.70,Y:-12.70) ;
G00 X12.70 Y-12.70 (Rapid to pattern center.) ;
G81 Z-2.0 R0.7 F100.0 (Begin drill cycle.) ;
G80 (Cancel drill cycle.) ;
G00 G90 Z2.5 (Rapid retract) ;
(BEGIN 2-PIP PATTERN at X:12.70,Y:-12.70) ;
G00 X6.05 Y-6.05 (Rapid to top-left pip.) ;
G81 Z-2.0 R0.7 F100.0 (Begin drill cycle.) ;
X19.35 Y-19.35 (2nd hole) ;
G80 (Cancel drill cycle.) ;
G00 G90 Z2.5 (Rapid retract) ;

(BEGIN 1-PIP PATTERN at X:38.10,Y:-12.70) ;
G00 X38.10 Y-12.70 (Rapid to pattern center.) ;
G81 Z-2.0 R0.7 F100.0 (Begin drill cycle.) ;
G80 (Cancel drill cycle.) ;
G00 G90 Z2.5 (Rapid retract) ;
(BEGIN 4-PIP PATTERN at X:38.10,Y:-12.70) ;
G00 X31.45 Y-6.05 (Rapid to top-left pip.) ;
G81 Z-2.0 R0.7 F100.0 (Begin drill cycle.) ;
X44.75 Y-6.05 (2nd hole) ;
X44.75 Y-19.35 (3rd hole) ;
X31.45 Y-19.35 (4th hole) ;
G80 (Cancel drill cycle.) ;
G00 G90 Z2.5 (Rapid retract) ;
(~~~~~~~~~~ End 3x5 Domino. ~~~~~~~~~~) ;

(Put a new domino in the work holding.) ;
M05 (Stop spindle.) ;
G00 X5.0 Y30.0 (Rapid to part change location.) ;
M0 (Pause for part change.) ;
S2800.0 M03 (Start spindle.) ;

(~~~~~~~~~~ Start 3x6 Domino. ~~~~~~~~~~) ;
(BEGIN 1-PIP PATTERN at X:12.70,Y:-12.70) ;
G00 X12.70 Y-12.70 (Rapid to pattern center.) ;
G81 Z-2.0 R0.7 F100.0 (Begin drill cycle.) ;
G80 (Cancel drill cycle.) ;
G00 G90 Z2.5 (Rapid retract) ;
(BEGIN 2-PIP PATTERN at X:12.70,Y:-12.70) ;
G00 X6.05 Y-6.05 (Rapid to top-left pip.) ;
G81 Z-2.0 R0.7 F100.0 (Begin drill cycle.) ;
X19.35 Y-19.35 (2nd hole) ;
G80 (Cancel drill cycle.) ;
G00 G90 Z2.5 (Rapid retract) ;

(BEGIN 6-PIP PATTERN at X:38.10,Y:-12.70) ;
G00 X31.45 Y-6.05 (Rapid to top-left pip.) ;
G81 Z-2.0 R0.7 F100.0 (Begin drill cycle.) ;
X38.10 Y-6.05 (2nd hole) ;
X44.75 Y-6.05 (3rd hole) ;
X44.75 Y-19.35 (4th hole) ;
X38.10 Y-19.35 (5th hole) ;
X31.45 Y-19.35 (6th hole) ;
G80 (Cancel drill cycle.) ;
G00 G90 Z2.5 (Rapid retract) ;
(~~~~~~~~~~ End 3x6 Domino. ~~~~~~~~~~) ;

(Put a new domino in the work holding.) ;
M05 (Stop spindle.) ;
G00 X5.0 Y30.0 (Rapid to part change location.) ;
M0 (Pause for part change.) ;
S2800.0 M03 (Start spindle.) ;

(~~~~~~~~~~ Start 4x4 Domino. ~~~~~~~~~~) ;
(BEGIN 4-PIP PATTERN at X:12.70,Y:-12.70) ;
G00 X6.05 Y-6.05 (Rapid to top-left pip.) ;
G81 Z-2.0 R0.7 F100.0 (Begin drill cycle.) ;
X19.35 Y-6.05 (2nd hole) ;
X19.35 Y-19.35 (3rd hole) ;
X6.05 Y-19.35 (4th hole) ;
G80 (Cancel drill cycle.) ;
G00 G90 Z2.5 (Rapid retract) ;

(BEGIN 4-PIP PATTERN at X:38.10,Y:-12.70) ;
G00 X31.45 Y-6.05 (Rapid to top-left pip.) ;
G81 Z-2.0 R0.7 F100.0 (Begin drill cycle.) ;
X44.75 Y-6.05 (2nd hole) ;
X44.75 Y-19.35 (3rd hole) ;
X31.45 Y-19.35 (4th hole) ;
G80 (Cancel drill cycle.) ;
G00 G90 Z2.5 (Rapid retract) ;
(~~~~~~~~~~ End 4x4 Domino. ~~~~~~~~~~) ;

(Put a new domino in the work holding.) ;
M05 (Stop spindle.) ;
G00 X5.0 Y30.0 (Rapid to part change location.) ;
M0 (Pause for part change.) ;
S2800.0 M03 (Start spindle.) ;

(~~~~~~~~~~ Start 4x5 Domino. ~~~~~~~~~~) ;
(BEGIN 4-PIP PATTERN at X:12.70,Y:-12.70) ;
G00 X6.05 Y-6.05 (Rapid to top-left pip.) ;
G81 Z-2.0 R0.7 F100.0 (Begin drill cycle.) ;
X19.35 Y-6.05 (2nd hole) ;
X19.35 Y-19.35 (3rd hole) ;
X6.05 Y-19.35 (4th hole) ;
G80 (Cancel drill cycle.) ;
G00 G90 Z2.5 (Rapid retract) ;

(BEGIN 1-PIP PATTERN at X:38.10,Y:-12.70) ;
G00 X38.10 Y-12.70 (Rapid to pattern center.) ;
G81 Z-2.0 R0.7 F100.0 (Begin drill cycle.) ;
G80 (Cancel drill cycle.) ;
G00 G90 Z2.5 (Rapid retract) ;
(BEGIN 4-PIP PATTERN at X:38.10,Y:-12.70) ;
G00 X31.45 Y-6.05 (Rapid to top-left pip.) ;
G81 Z-2.0 R0.7 F100.0 (Begin drill cycle.) ;
X44.75 Y-6.05 (2nd hole) ;
X44.75 Y-19.35 (3rd hole) ;
X31.45 Y-19.35 (4th hole) ;
G80 (Cancel drill cycle.) ;
G00 G90 Z2.5 (Rapid retract) ;
(~~~~~~~~~~ End 4x5 Domino. ~~~~~~~~~~) ;

(Put a new domino in the work holding.) ;
M05 (Stop spindle.) ;
G00 X5.0 Y30.0 (Rapid to part change location.) ;
M0 (Pause for part change.) ;
S2800.0 M03 (Start spindle.) ;

(~~~~~~~~~~ Start 4x6 Domino. ~~~~~~~~~~) ;
(BEGIN 4-PIP PATTERN at X:12.70,Y:-12.70) ;
G00 X6.05 Y-6.05 (Rapid to top-left pip.) ;
G81 Z-2.0 R0.7 F100.0 (Begin drill cycle.) ;
X19.35 Y-6.05 (2nd hole) ;
X19.35 Y-19.35 (3rd hole) ;
X6.05 Y-19.35 (4th hole) ;
G80 (Cancel drill cycle.) ;
G00 G90 Z2.5 (Rapid retract) ;

(BEGIN 6-PIP PATTERN at X:38.10,Y:-12.70) ;
G00 X31.45 Y-6.05 (Rapid to top-left pip.) ;
G81 Z-2.0 R0.7 F100.0 (Begin drill cycle.) ;
X38.10 Y-6.05 (2nd hole) ;
X44.75 Y-6.05 (3rd hole) ;
X44.75 Y-19.35 (4th hole) ;
X38.10 Y-19.35 (5th hole) ;
X31.45 Y-19.35 (6th hole) ;
G80 (Cancel drill cycle.) ;
G00 G90 Z2.5 (Rapid retract) ;
(~~~~~~~~~~ End 4x6 Domino. ~~~~~~~~~~) ;

(Put a new domino in the work holding.) ;
M05 (Stop spindle.) ;
G00 X5.0 Y30.0 (Rapid to part change location.) ;
M0 (Pause for part change.) ;
S2800.0 M03 (Start spindle.) ;

(~~~~~~~~~~ Start 5x5 Domino. ~~~~~~~~~~) ;
(BEGIN 1-PIP PATTERN at X:12.70,Y:-12.70) ;
G00 X12.70 Y-12.70 (Rapid to pattern center.) ;
G81 Z-2.0 R0.7 F100.0 (Begin drill cycle.) ;
G80 (Cancel drill cycle.) ;
G00 G90 Z2.5 (Rapid retract) ;
(BEGIN 4-PIP PATTERN at X:12.70,Y:-12.70) ;
G00 X6.05 Y-6.05 (Rapid to top-left pip.) ;
G81 Z-2.0 R0.7 F100.0 (Begin drill cycle.) ;
X19.35 Y-6.05 (2nd hole) ;
X19.35 Y-19.35 (3rd hole) ;
X6.05 Y-19.35 (4th hole) ;
G80 (Cancel drill cycle.) ;
G00 G90 Z2.5 (Rapid retract) ;

(BEGIN 1-PIP PATTERN at X:38.10,Y:-12.70) ;
G00 X38.10 Y-12.70 (Rapid to pattern center.) ;
G81 Z-2.0 R0.7 F100.0 (Begin drill cycle.) ;
G80 (Cancel drill cycle.) ;
G00 G90 Z2.5 (Rapid retract) ;
(BEGIN 4-PIP PATTERN at X:38.10,Y:-12.70) ;
G00 X31.45 Y-6.05 (Rapid to top-left pip.) ;
G81 Z-2.0 R0.7 F100.0 (Begin drill cycle.) ;
X44.75 Y-6.05 (2nd hole) ;
X44.75 Y-19.35 (3rd hole) ;
X31.45 Y-19.35 (4th hole) ;
G80 (Cancel drill cycle.) ;
G00 G90 Z2.5 (Rapid retract) ;
(~~~~~~~~~~ End 5x5 Domino. ~~~~~~~~~~) ;

(Put a new domino in the work holding.) ;
M05 (Stop spindle.) ;
G00 X5.0 Y30.0 (Rapid to part change location.) ;
M0 (Pause for part change.) ;
S2800.0 M03 (Start spindle.) ;

(~~~~~~~~~~ Start 5x6 Domino. ~~~~~~~~~~) ;
(BEGIN 1-PIP PATTERN at X:12.70,Y:-12.70) ;
G00 X12.70 Y-12.70 (Rapid to pattern center.) ;
G81 Z-2.0 R0.7 F100.0 (Begin drill cycle.) ;
G80 (Cancel drill cycle.) ;
G00 G90 Z2.5 (Rapid retract) ;
(BEGIN 4-PIP PATTERN at X:12.70,Y:-12.70) ;
G00 X6.05 Y-6.05 (Rapid to top-left pip.) ;
G81 Z-2.0 R0.7 F100.0 (Begin drill cycle.) ;
X19.35 Y-6.05 (2nd hole) ;
X19.35 Y-19.35 (3rd hole) ;
X6.05 Y-19.35 (4th hole) ;
G80 (Cancel drill cycle.) ;
G00 G90 Z2.5 (Rapid retract) ;

(BEGIN 6-PIP PATTERN at X:38.10,Y:-12.70) ;
G00 X31.45 Y-6.05 (Rapid to top-left pip.) ;
G81 Z-2.0 R0.7 F100.0 (Begin drill cycle.) ;
X38.10 Y-6.05 (2nd hole) ;
X44.75 Y-6.05 (3rd hole) ;
X44.75 Y-19.35 (4th hole) ;
X38.10 Y-19.35 (5th hole) ;
X31.45 Y-19.35 (6th hole) ;
G80 (Cancel drill cycle.) ;
G00 G90 Z2.5 (Rapid retract) ;
(~~~~~~~~~~ End 5x6 Domino. ~~~~~~~~~~) ;

(Put a new domino in the work holding.) ;
M05 (Stop spindle.) ;
G00 X5.0 Y30.0 (Rapid to part change location.) ;
M0 (Pause for part change.) ;
S2800.0 M03 (Start spindle.) ;

(~~~~~~~~~~ Start 6x6 Domino. ~~~~~~~~~~) ;
(BEGIN 6-PIP PATTERN at X:12.70,Y:-12.70) ;
G00 X6.05 Y-6.05 (Rapid to top-left pip.) ;
G81 Z-2.0 R0.7 F100.0 (Begin drill cycle.) ;
X12.70 Y-6.05 (2nd hole) ;
X19.35 Y-6.05 (3rd hole) ;
X19.35 Y-19.35 (4th hole) ;
X12.70 Y-19.35 (5th hole) ;
X6.05 Y-19.35 (6th hole) ;
G80 (Cancel drill cycle.) ;
G00 G90 Z2.5 (Rapid retract) ;

(BEGIN 6-PIP PATTERN at X:38.10,Y:-12.70) ;
G00 X31.45 Y-6.05 (Rapid to top-left pip.) ;
G81 Z-2.0 R0.7 F100.0 (Begin drill cycle.) ;
X38.10 Y-6.05 (2nd hole) ;
X44.75 Y-6.05 (3rd hole) ;
X44.75 Y-19.35 (4th hole) ;
X38.10 Y-19.35 (5th hole) ;
X31.45 Y-19.35 (6th hole) ;
G80 (Cancel drill cycle.) ;
G00 G90 Z2.5 (Rapid retract) ;
(~~~~~~~~~~ End 6x6 Domino. ~~~~~~~~~~) ;

(BEGIN COMPLETION BLOCKS) ;
M05 (Stop spindle.) ;
G00 X5.0 Y30.0 (Rapid to part change location.) ;
M30 (End program) ;
%
